X:1
T:Clarke's
M:4/4
O:Trad. (18.2.2016/NS)
L:1/8
K:Dmaj
"D" d2dB A<FFA | "A" G<EEG   "D" F<DD2 | dcdB A<FF2 | faeg fddc |
    d2dB AFFA  |     GEEG        FDD2  | d2dB AFF2  | faeg fdde |
    fdad fdad  |     (3cBAeA     fAeA  | fdad fdde  | faeg fdde|
    fdad fdad  |     (3cBAeA     fAeA  | (3Bcd (3cde (3def (3efg|(3fga (3bag (3fgf (3edc|
